images/icons/source/export.svg

<svg width="48" height="48" viewBox="0 0 48 48" version="1.1" xmlns="http://www.w3.org/2000/svg" xmlns:xlink="http://www.w3.org/1999/xlink" xmlns:figma="http://www.figma.com/figma/ns">
<title>export</title>
<desc>Created using Figma</desc>
<g id="Canvas" transform="translate(233 -115)" figma:type="canvas">
<mask id="mask0_alpha" mask-type="alpha">
<path d="M -233 115L -185 115L -185 163L -233 163L -233 115Z" fill="#FFFFFF"/>
</mask>
<g id="export" style="mix-blend-mode:normal;" mask="url(#mask0_alpha)" figma:type="frame">
<g id="Vector" style="mix-blend-mode:normal;" figma:type="vector">
<use xlink:href="#path0_fill" transform="translate(-233 121.247)" fill="#3BB75E" style="mix-blend-mode:normal;"/>
</g>
</g>
</g>
<defs>
<path id="path0_fill" d="M 19.4283 -1.56819e-05C 14.2772 -1.56819e-05 9.63052 0.566283 6.17909 1.53934C 4.45338 2.02586 3.03039 2.60484 1.94719 3.32924C 0.923623 4.01378 0.106682 4.94103 0.0187282 6.10364C 0.0182658 6.10977 0.0191497 6.11543 0.0187282 6.1215C 0.00810411 6.18061 0.00213365 6.24045 0.000872172 6.3005L 0.000872172 11.366C -0.000290775 11.3958 -0.000290775 11.4257 0.000872172 11.4555L 0.000872172 16.5925C 0.000826429 16.5984 0.000826429 16.6044 0.000872172 16.6103L 0.000872172 21.7652L 0.000872172 26.9202C 0.000872172 28.1806 0.812078 29.1636 1.87577 29.9988C 2.93945 30.834 4.35903 31.5626 6.08981 32.2005C 9.55138 33.4763 14.2343 34.3662 19.4283 34.3662C 23.1818 34.3662 26.468 33.9168 29.4099 33.1849C 29.5572 33.1504 29.6962 33.0869 29.8189 32.9983C 29.9417 32.9097 30.0458 32.7977 30.1252 32.6687C 30.2046 32.5396 30.2577 32.3961 30.2816 32.2463C 30.3055 32.0966 30.2996 31.9436 30.2643 31.7962C 30.229 31.6488 30.165 31.5098 30.0759 31.3872C 29.9868 31.2647 29.8745 31.161 29.7453 31.0821C 29.6161 31.0033 29.4727 30.9508 29.3232 30.9276C 29.1737 30.9045 29.0211 30.9113 28.8742 30.9475C 26.1074 31.6359 23.0011 32.0751 19.4283 32.0751C 14.4927 32.0751 10.0238 31.2129 6.87548 30.0526C 5.30131 29.4723 4.06832 28.8228 3.2864 28.2089C 2.50448 27.595 2.28646 27.0877 2.28646 26.9202L 2.28646 25.5956C 3.31551 26.3385 4.61213 26.918 6.12553 27.4214C 9.60687 28.5791 14.27 29.2112 19.4283 29.2112C 22.7982 29.2112 25.4091 29.1446 28.2136 28.6206C 28.5096 28.5613 28.7703 28.3872 28.939 28.1361C 29.1076 27.8851 29.1705 27.5774 29.114 27.2801C 29.0575 26.9828 28.8862 26.7199 28.6373 26.5486C 28.3884 26.3773 28.0821 26.3114 27.785 26.3653C 25.1958 26.8491 22.767 26.9202 19.4283 26.9202C 14.457 26.9202 9.96834 26.2961 6.83977 25.2555C 5.27549 24.7353 4.06047 24.0959 3.30426 23.4656C 2.54804 22.8354 2.28646 22.3075 2.28646 21.7654L 2.28646 20.3693C 3.32237 21.1303 4.58862 21.7555 6.12553 22.2666C 9.60687 23.4243 14.27 24.0564 19.4283 24.0564C 23.7317 24.0564 26.8171 23.6841 29.9992 22.8751C 30.1446 22.8376 30.2812 22.7716 30.4012 22.6811C 30.5211 22.5906 30.6222 22.4773 30.6984 22.3476C 30.7747 22.218 30.8248 22.0745 30.8458 21.9255C 30.8668 21.7764 30.8582 21.6247 30.8207 21.4789C 30.7832 21.3332 30.7174 21.1963 30.6271 21.076C 30.5368 20.9558 30.4237 20.8545 30.2944 20.7781C 30.165 20.7016 30.0219 20.6515 29.8732 20.6305C 29.7245 20.6094 29.5732 20.618 29.4278 20.6556C 26.4209 21.4201 23.603 21.7654 19.4283 21.7654C 14.457 21.7654 9.96834 21.1412 6.83977 20.1007C 5.27549 19.5805 4.06047 18.9411 3.30426 18.3108C 2.54804 17.6805 2.28646 17.1525 2.28646 16.6105C 2.28813 16.5747 2.28813 16.5388 2.28646 16.503L 2.28646 15.2859C 3.31551 16.0288 4.61213 16.6083 6.12553 17.1116C 9.60687 18.2694 14.27 18.9015 19.4283 18.9015C 24.5867 18.9015 29.2498 18.2694 32.7312 17.1116C 34.2446 16.6083 35.5412 16.0288 36.5702 15.2859L 36.5702 17.1832C 36.5681 17.335 36.5961 17.4857 36.6525 17.6266C 36.709 17.7674 36.7928 17.8957 36.8992 18.0038C 37.0055 18.1119 37.1322 18.1977 37.2719 18.2563C 37.4116 18.3149 37.5616 18.3451 37.713 18.3451C 37.8645 18.3451 38.0144 18.3149 38.1541 18.2563C 38.2938 18.1977 38.4205 18.1119 38.5269 18.0038C 38.6332 17.8957 38.717 17.7674 38.7735 17.6266C 38.83 17.4857 38.858 17.335 38.8558 17.1832L 38.8558 11.4555C 38.8575 11.4197 38.8575 11.3839 38.8558 11.3481L 38.8558 6.3005C 38.8558 6.26293 38.8574 6.23021 38.8558 6.19312C 38.8516 6.15706 38.8456 6.12121 38.838 6.08571C 38.7428 4.93177 37.9277 4.01018 36.9095 3.32924C 35.8263 2.60484 34.4033 2.02586 32.6776 1.53934C 29.2262 0.566283 24.5795 -1.56819e-05 19.4283 -1.56819e-05L 19.4283 -1.56819e-05ZM 19.4283 2.2911C 24.407 2.2911 28.8941 2.85046 32.0526 3.74094C 33.6319 4.18617 34.8793 4.73458 35.6417 5.24446C 36.4041 5.75434 36.5702 6.13305 36.5702 6.3005C 36.5702 6.84257 36.3086 7.37062 35.5524 8.00093C 34.7962 8.63124 33.5812 9.27062 32.0169 9.79087C 28.8884 10.8314 24.3997 11.4555 19.4283 11.4555C 14.457 11.4555 9.96834 10.8314 6.83977 9.79087C 5.27549 9.27062 4.06047 8.63124 3.30426 8.00093C 2.54804 7.37062 2.28646 6.84257 2.28646 6.3005C 2.28646 6.13305 2.45256 5.75434 3.21498 5.24446C 3.97739 4.73458 5.22481 4.18617 6.80406 3.74094C 9.96254 2.85046 14.4497 2.2911 19.4283 2.2911ZM 2.28646 10.1309C 3.31551 10.8738 4.61213 11.4534 6.12552 11.9567C 9.60687 13.1145 14.27 13.7466 19.4283 13.7466C 24.5867 13.7466 29.2498 13.1145 32.7312 11.9567C 34.2446 11.4534 35.5412 10.8738 36.5702 10.1309L 36.5702 11.3839C 36.5695 11.4077 36.5695 11.4316 36.5702 11.4555C 36.5702 11.9976 36.3087 12.5256 35.5524 13.1559C 34.7962 13.7862 33.5812 14.4256 32.0169 14.9458C 28.8884 15.9863 24.3997 16.6105 19.4283 16.6105C 14.457 16.6105 9.96834 15.9863 6.83977 14.9458C 5.27549 14.4256 4.06047 13.7862 3.30426 13.1559C 2.54804 12.5256 2.28646 11.9976 2.28646 11.4555C 2.28813 11.4197 2.28813 11.3839 2.28646 11.3481L 2.28646 10.1309L 2.28646 10.1309ZM 39.945 20.602C 39.7165 20.6102 39.4956 20.687 39.3111 20.8224C 39.1265 20.9578 38.9867 21.1456 38.9098 21.3616C 38.8329 21.5775 38.8224 21.8115 38.8796 22.0335C 38.9368 22.2555 39.0592 22.4551 39.2308 22.6067L 43.9091 26.9204L 31.9991 26.9204C 31.9634 26.9187 31.9276 26.9187 31.8919 26.9204C 31.7409 26.9261 31.5925 26.9617 31.4552 27.0252C 31.318 27.0887 31.1947 27.1788 31.0924 27.2904C 30.9901 27.4019 30.9109 27.5327 30.8594 27.6751C 30.8078 27.8175 30.7849 27.9688 30.7919 28.1201C 30.799 28.2715 30.8359 28.4199 30.9006 28.5568C 30.9652 28.6938 31.0563 28.8165 31.1685 28.918C 31.2808 29.0195 31.412 29.0977 31.5545 29.148C 31.6971 29.1984 31.8482 29.2199 31.9991 29.2114L 43.9091 29.2114L 39.2308 33.5073C 39.1189 33.6082 39.0279 33.7303 38.9631 33.8665C 38.8983 34.0028 38.861 34.1504 38.8533 34.3012C 38.8455 34.4519 38.8676 34.6027 38.9181 34.7449C 38.9686 34.887 39.0466 35.0178 39.1477 35.1296C 39.2487 35.2415 39.3708 35.3323 39.5069 35.3968C 39.643 35.4613 39.7905 35.4983 39.9409 35.5055C 40.0913 35.5128 40.2416 35.4902 40.3833 35.4391C 40.5249 35.388 40.6551 35.3094 40.7664 35.2077L 47.6232 28.9071C 47.7418 28.7997 47.8366 28.6685 47.9016 28.5221C 47.9665 28.3756 48 28.2172 48 28.057C 48 27.8967 47.9665 27.7382 47.9016 27.5918C 47.8366 27.4453 47.7418 27.3142 47.6232 27.2068L 40.7664 20.9062C 40.6562 20.8039 40.5269 20.7243 40.386 20.6721C 40.245 20.6199 40.0952 20.5961 39.945 20.602L 39.945 20.602Z"/>
</defs>
</svg>

<svg width="48" height="48" viewBox="0 0 48 48" xmlns="http://www.w3.org/2000/svg" xmlns:xlink="http://www.w3.org/1999/xlink" xmlns:figma="http://www.figma.com/figma/ns">
    <title>
        export
    </title>
    <desc>
        Created using Figma
    </desc>
    <g transform="translate(233 -115)" figma:type="canvas">
        <mask id="a">
            <path d="M-233 115h48v48h-48v-48z" fill="#FFF"/>
        </mask>
        <g style="mix-blend-mode:normal" mask="url(#a)" figma:type="frame">
            <use xlink:href="#b" transform="translate(-233 121.247)" fill="#3BB75E" style="mix-blend-mode:normal" figma:type="vector"/>
        </g>
    </g>
    <defs>
        <path id="b" d="M19.428 0C14.278 0 9.631.566 6.18 1.54c-1.726.486-3.149 1.065-4.232 1.79C.924 4.013.107 4.94.02 6.103v.018C.009 6.18.002 6.24 0 6.3v5.065V26.92C0 28.18.812 29.164 1.876 30c1.063.835 2.483 1.564 4.214 2.201 3.461 1.276 8.144 2.166 13.338 2.166 3.754 0 7.04-.45 9.982-1.181a1.145 1.145 0 0 0 .872-.939 1.153 1.153 0 0 0-.959-1.318 1.145 1.145 0 0 0-.449.02c-2.767.688-5.873 1.127-9.446 1.127-4.935 0-9.404-.862-12.553-2.022-1.574-.58-2.807-1.23-3.589-1.844-.782-.614-1-1.121-1-1.289v-1.324c1.03.742 2.326 1.322 3.84 1.825 3.48 1.158 8.144 1.79 13.302 1.79 3.37 0 5.981-.066 8.786-.59a1.145 1.145 0 0 0 .9-1.34 1.148 1.148 0 0 0-1.329-.916c-2.59.484-5.018.555-8.357.555-4.971 0-9.46-.624-12.588-1.665-1.565-.52-2.78-1.16-3.536-1.79-.756-.63-1.018-1.157-1.018-1.7V20.37c1.036.761 2.303 1.387 3.84 1.898 3.48 1.157 8.144 1.79 13.302 1.79 4.304 0 7.39-.373 10.571-1.182a1.141 1.141 0 0 0 .847-.95 1.15 1.15 0 0 0-.973-1.294 1.14 1.14 0 0 0-.445.025c-3.007.764-5.825 1.11-10 1.11-4.971 0-9.46-.625-12.588-1.665-1.565-.52-2.78-1.16-3.536-1.79-.756-.63-1.018-1.159-1.018-1.7a1.154 1.154 0 0 0 0-.108v-1.217c1.03.743 2.326 1.322 3.84 1.826 3.48 1.157 8.144 1.79 13.302 1.79 5.159 0 9.822-.633 13.303-1.79 1.514-.504 2.81-1.083 3.84-1.826v1.897a1.15 1.15 0 0 0 .7 1.073 1.14 1.14 0 0 0 1.585-1.073v-5.727a1.131 1.131 0 0 0 0-.108V6.3v-.107a1.147 1.147 0 0 0-.018-.107c-.095-1.154-.91-2.076-1.928-2.757-1.084-.724-2.507-1.303-4.232-1.79C29.226.566 24.58 0 19.428 0zm0 2.291c4.979 0 9.466.56 12.625 1.45 1.579.445 2.826.994 3.589 1.503.762.51.928.89.928 1.057 0 .542-.261 1.07-1.018 1.7-.756.63-1.97 1.27-3.535 1.79-3.129 1.04-7.617 1.665-12.589 1.665-4.971 0-9.46-.625-12.588-1.665C5.275 9.27 4.06 8.63 3.304 8c-.756-.63-1.018-1.158-1.018-1.7 0-.168.167-.547.929-1.057.762-.51 2.01-1.058 3.59-1.503 3.158-.89 7.645-1.45 12.623-1.45zm-17.142 7.84c1.03.743 2.326 1.322 3.84 1.826 3.48 1.157 8.144 1.79 13.302 1.79 5.159 0 9.822-.633 13.303-1.79 1.514-.504 2.81-1.083 3.84-1.826v1.253c-.002.024-.002.048 0 .072 0 .542-.262 1.07-1.019 1.7-.756.63-1.97 1.27-3.535 1.79-3.129 1.04-7.617 1.664-12.589 1.664-4.971 0-9.46-.624-12.588-1.664-1.565-.52-2.78-1.16-3.536-1.79-.756-.63-1.018-1.158-1.018-1.7a1.152 1.152 0 0 0 0-.108v-1.217zm37.659 10.471a1.14 1.14 0 0 0-1.035.76 1.148 1.148 0 0 0 .32 1.245l4.68 4.313H32a1.143 1.143 0 0 0-1.207 1.2 1.148 1.148 0 0 0 1.206 1.091h11.91l-4.678 4.296a1.148 1.148 0 0 0 1.152 1.932c.142-.051.272-.13.383-.231l6.857-6.3a1.148 1.148 0 0 0 0-1.701l-6.857-6.3a1.143 1.143 0 0 0-.821-.305z"/>
    </defs>
</svg>
